icon/pk/s-turn-left.svg

<svg width="48" height="48" fill="none" xmlns="http://www.w3.org/2000/svg"><path d="M42 38H13c-4 0-7-3-7-7s3-7 7-7h6M19 24h16c4 0 7-3 7-7s-3-7-7-7H17" stroke="#000" stroke-width="4" stroke-linecap="round" stroke-linejoin="round"/><path d="m37 43 5-5-5-5" stroke="#000" stroke-width="4" stroke-linecap="round" stroke-linejoin="round"/><circle cx="12" cy="10" r="5" transform="rotate(-180 12 10)" fill="#2F88FF" stroke="#000" stroke-width="4"/></svg>

<svg viewBox="0 0 48 48" fill="none" xmlns="http://www.w3.org/2000/svg" height="1em" width="1em">
  <path d="M42 38L13 38C8.99999 38 5.99999 35 5.99999 31C5.99999 27 8.99999 24 13 24L19 24" stroke="black" stroke-width="4" stroke-linecap="round" stroke-linejoin="round"/>
  <path d="M19 24L35 24C39 24 42 21 42 17C42 13 39 10 35 10L17 10" stroke="black" stroke-width="4" stroke-linecap="round" stroke-linejoin="round"/>
  <path d="M37 43L42 38L37 33" stroke="black" stroke-width="4" stroke-linecap="round" stroke-linejoin="round"/>
  <circle cx="12" cy="9.99994" r="5" transform="rotate(-180 12 9.99994)" fill="#2F88FF" stroke="black" stroke-width="4"/>
</svg>
